X: 533
T: Husförhörspolska efter Timas Hans Hansson
S: efter [[!Timas Hans Hansson]]
O: Dalarna, Ore
R: Polska
Z: Håkan Lidén, 2008-09-27
M: 3/4
L: 1/8
K: Dm
A>^c d>e f>e | g/a/g/f/ de c>d | c/d/c/B/ G>A B>d | dc A4 :|
|: F>A c/d/c/B/ G>B | d/e/d/c/ AF D2 | fg/f/ ed/^c/ d>f | ed/^c/ df a2 |
F>A c/d/c/B/ G>B | d/e/d/c/ AF D2 | fg/f/ ed/^c/ df/g/ | a^c d4:|
(:musicend:)

(:music:)
